X:6449
T:Tempest, The
O:england
M:C|
L:1/8
R:reel
K:Ddor
d2cA G~E3|DEcE dEcE|d2cA G~E3|DEcE EDD2|
d2cA G~E3|DEcE dEcE|DEFA GEcE|EDCD EDD2:|
|:d2ed cAGc|AdcA GE~E2|d2ed cdef|edcA daag|
~f3d edcd|cAGc AcGE|DEFA GEcE|EDCD EDD2:|


